icon/pk/folder-success-one.svg

<svg viewBox="0 0 48 48" fill="none" xmlns="http://www.w3.org/2000/svg" height="1em" width="1em">
  <path d="M43 23V14C43 12.8954 42.1046 12 41 12H24L19 6H7C5.89543 6 5 6.89543 5 8V40C5 41.1046 5.89543 42 7 42H22" stroke="black" stroke-width="4" stroke-linecap="round" stroke-linejoin="round"/>
  <path d="M29 38L34 42L43 31" stroke="black" stroke-width="4" stroke-linecap="round" stroke-linejoin="round"/>
</svg>

<svg width="48" height="48" fill="none" xmlns="http://www.w3.org/2000/svg"><path d="M43 23v-9a2 2 0 0 0-2-2H24l-5-6H7a2 2 0 0 0-2 2v32a2 2 0 0 0 2 2h15M29 38l5 4 9-11" stroke="#000" stroke-width="4" stroke-linecap="round" stroke-linejoin="round"/></svg>
